src/assets/icons/graphics-card.svg

<svg width="22" height="22" viewBox="0 0 22 22" fill="none" xmlns="http://www.w3.org/2000/svg">
<path d="M0.5 2C0.5 1.72386 0.723858 1.5 1 1.5H4C4.27614 1.5 4.5 1.72386 4.5 2V20C4.5 20.2761 4.27614 20.5 4 20.5H2C1.72386 20.5 1.5 20.2761 1.5 20V5.05902C1.5 4.52703 1.19943 4.0407 0.723607 3.80279C0.586566 3.73427 0.5 3.5942 0.5 3.44098V2Z" stroke="white"/>
<path d="M4.5 4C4.5 3.72386 4.72386 3.5 5 3.5H6.11765H11.3529H19.3967C19.4897 3.5 19.5719 3.52514 19.6367 3.56787L19.912 3.15046L19.6367 3.56787C19.9144 3.75095 20.3526 4.05975 20.6464 4.35355L21.3537 5.06085C21.4474 5.15452 21.5 5.28147 21.5 5.41421V16C21.5 16.2761 21.2761 16.5 21 16.5H11.3529H6.11765H5C4.72386 16.5 4.5 16.2761 4.5 16V4Z" stroke="white"/>
<path d="M5 7H9C9 7 8.66667 8.5 8.66667 10C8.66667 11.5 9 13 9 13H5" stroke="white"/>
<path d="M16.2959 7.26275C15.9763 7.98189 15.4532 8.26742 15 8.26742C14.5467 8.26742 14.0236 7.98189 13.7041 7.26275C13.5105 6.82694 13.4801 6.52383 13.5099 6.32107C13.5383 6.12808 13.6267 5.98601 13.7594 5.87099C14.0541 5.61562 14.5674 5.5 15 5.5C15.4326 5.5 15.9459 5.61562 16.2406 5.87099C16.3733 5.98601 16.4617 6.12808 16.4901 6.32107C16.5199 6.52383 16.4895 6.82694 16.2959 7.26275Z" stroke="white"/>
<path d="M16.2959 12.6826C15.9763 11.9634 15.4532 11.6779 15 11.6779C14.5467 11.6779 14.0236 11.9634 13.7041 12.6826C13.5105 13.1184 13.4801 13.4215 13.5099 13.6242C13.5383 13.8172 13.6267 13.9593 13.7594 14.0743C14.0541 14.3297 14.5674 14.4453 15 14.4453C15.4326 14.4453 15.9459 14.3297 16.2406 14.0743C16.3733 13.9593 16.4617 13.8172 16.4901 13.6242C16.5199 13.4215 16.4895 13.1184 16.2959 12.6826Z" stroke="white"/>
<path d="M17.7099 11.2685C16.9908 10.949 16.7052 10.4259 16.7052 9.97265C16.7052 9.51941 16.9908 8.9963 17.7099 8.6768C18.1457 8.48318 18.4488 8.45273 18.6516 8.48256C18.8446 8.51095 18.9866 8.59936 19.1017 8.73208C19.357 9.02671 19.4727 9.54005 19.4727 9.97266C19.4727 10.4053 19.357 10.9186 19.1017 11.2132C18.9866 11.346 18.8446 11.4344 18.6516 11.4628C18.4488 11.4926 18.1457 11.4621 17.7099 11.2685Z" stroke="white"/>
<path d="M12.2901 11.2685C13.0092 10.949 13.2948 10.4259 13.2948 9.97265C13.2948 9.51941 13.0092 8.9963 12.2901 8.6768C11.8543 8.48318 11.5512 8.45273 11.3484 8.48256C11.1554 8.51095 11.0134 8.59936 10.8983 8.73208C10.643 9.02671 10.5273 9.54005 10.5273 9.97266C10.5273 10.4053 10.643 10.9186 10.8983 11.2132C11.0134 11.346 11.1554 11.4344 11.3484 11.4628C11.5512 11.4926 11.8543 11.4621 12.2901 11.2685Z" stroke="white"/>
<circle cx="15" cy="10" r="4.5" stroke="white"/>
<circle cx="15" cy="10" r="1.5" stroke="white"/>
<rect x="6.5" y="16.5" width="3" height="2" rx="0.5" stroke="white"/>
<rect x="12.5" y="16.5" width="3" height="2" rx="0.5" stroke="white"/>
<rect x="15.5" y="16.5" width="3" height="2" rx="0.5" stroke="white"/>
<rect x="9.5" y="16.5" width="3" height="2" rx="0.5" stroke="white"/>
</svg>

<svg width="22" height="22" fill="none" xmlns="http://www.w3.org/2000/svg"><path d="M.5 2a.5.5 0 0 1 .5-.5h3a.5.5 0 0 1 .5.5v18a.5.5 0 0 1-.5.5H2a.5.5 0 0 1-.5-.5V5.059c0-.532-.3-1.018-.776-1.256A.4.4 0 0 1 .5 3.44zM4.5 4a.5.5 0 0 1 .5-.5h14.397000000000002q.141.002.24.068l.275-.418-.275.418c.277.183.716.492 1.01.786l.707.707a.5.5 0 0 1 .146.353V16a.5.5 0 0 1-.5.5H5a.5.5 0 0 1-.5-.5z" stroke="#fff"/><path d="M5 7h4s-.333 1.5-.333 3S9 13 9 13H5M16.296 7.263c-.32.719-.843 1.004-1.296 1.004s-.976-.285-1.296-1.004c-.194-.436-.224-.74-.194-.942a.7.7 0 0 1 .25-.45c.294-.255.807-.371 1.24-.371s.946.116 1.24.371a.7.7 0 0 1 .25.45c.03.203 0 .506-.194.942ZM16.296 12.683c-.32-.72-.843-1.005-1.296-1.005s-.976.285-1.296 1.005c-.194.435-.224.739-.194.941a.7.7 0 0 0 .25.45c.294.256.807.371 1.24.371s.946-.115 1.24-.37a.7.7 0 0 0 .25-.45c.03-.203 0-.507-.194-.942ZM17.71 11.269c-.72-.32-1.005-.843-1.005-1.296s.286-.977 1.005-1.296c.436-.194.739-.224.942-.194a.7.7 0 0 1 .45.25c.255.294.37.807.37 1.24s-.115.946-.37 1.24a.7.7 0 0 1-.45.25c-.203.03-.506 0-.942-.194ZM12.29 11.269c.72-.32 1.005-.843 1.005-1.296s-.286-.977-1.005-1.296c-.436-.194-.739-.224-.942-.194a.7.7 0 0 0-.45.25c-.255.294-.37.807-.37 1.24s.115.946.37 1.24a.7.7 0 0 0 .45.25c.203.03.506 0 .942-.194Z" stroke="#fff"/><circle cx="15" cy="10" r="4.5" stroke="#fff"/><circle cx="15" cy="10" r="1.5" stroke="#fff"/><rect x="6.5" y="16.5" width="3" height="2" rx=".5" stroke="#fff"/><rect x="12.5" y="16.5" width="3" height="2" rx=".5" stroke="#fff"/><rect x="15.5" y="16.5" width="3" height="2" rx=".5" stroke="#fff"/><rect x="9.5" y="16.5" width="3" height="2" rx=".5" stroke="#fff"/></svg>
